src/people-body/person-symbol/1F464.svg

<svg id="emoji" viewBox="0 0 72 72" xmlns="http://www.w3.org/2000/svg">
  <g id="grid">
    <path fill="#b3b3b3" d="M68,4V68H4V4H68m4-4H0V72H72V0Z"/>
    <path fill="none" stroke="#00a5ff" stroke-miterlimit="10" stroke-width="0.1" d="M12.923,10.9583H59.0769A1.9231,1.9231,0,0,1,61,12.8814V59.0352a1.9231,1.9231,0,0,1-1.9231,1.9231H12.9231A1.9231,1.9231,0,0,1,11,59.0352V12.8813A1.923,1.923,0,0,1,12.923,10.9583Z"/>
    <rect x="16" y="4" rx="2.2537" width="40" height="64" fill="none" stroke="#00a5ff" stroke-miterlimit="10" stroke-width="0.1"/>
    <rect x="16" y="4" rx="2.2537" width="40" height="64" transform="translate(72) rotate(90)" fill="none" stroke="#00a5ff" stroke-miterlimit="10" stroke-width="0.1"/>
    <circle cx="36" cy="36" r="29" fill="none" stroke="#00a5ff" stroke-miterlimit="10" stroke-width="0.1"/>
  </g>
  <g id="color">
    <path fill="#D0CFCE" stroke="none" d="M58,61c0,0,0-3-1-7c-1.2109-4.8457-4-8-10-8c-5,0-15,0-22,0c-6,0-8.7891,3.1543-10,8c-1,4-1,7-1,7H58z"/>
    <path fill="#D0CFCE" stroke="none" d="M26,26c0,3.7246,0.5391,7.8086,2,10c1.8613,2.793,5.0176,4,8,4c3.0957,0,6.1367-1.207,8-4 c1.46-2.1914,2-6.2754,2-10c0-2.7935-1-12-10-12S26,21.3442,26,26z"/>
  </g>
  <g id="hair"/>
  <g id="skin"/>
  <g id="skin-shadow"/>
  <g id="line">
    <path fill="none" stroke="#000000" stroke-linecap="round" stroke-linejoin="round" stroke-width="2" d="M58,60c0,0,0-2-1-6 c-1.2109-4.8457-4-8-10-8c-5,0-15,0-22,0c-6,0-8.7891,3.1543-10,8c-1,4-1,6-1,6"/>
    <path fill="none" stroke="#000000" stroke-linejoin="round" stroke-width="2" d="M26,26c0,3.7246,0.5391,7.8086,2,10 c1.8613,2.793,5.0176,4,8,4c3.0957,0,6.1367-1.207,8-4c1.46-2.1914,2-6.2754,2-10c0-2.7935-1-12-10-12S26,21.3442,26,26z"/>
  </g>
</svg>

<svg viewBox="0 0 72 72" xmlns="http://www.w3.org/2000/svg"><path fill="#b3b3b3" d="M68 4v64H4V4h64m4-4H0v72h72V0z"/><path fill="none" stroke="#00a5ff" stroke-miterlimit="10" stroke-width=".1" d="M12.923 10.958h46.154A1.923 1.923 0 0161 12.881v46.154a1.923 1.923 0 01-1.923 1.923H12.923A1.923 1.923 0 0111 59.035V12.881a1.923 1.923 0 011.923-1.923z"/><rect x="16" y="4" rx="2.254" width="40" height="64" fill="none" stroke="#00a5ff" stroke-miterlimit="10" stroke-width=".1"/><rect x="16" y="4" rx="2.254" width="40" height="64" transform="rotate(90 36 36)" fill="none" stroke="#00a5ff" stroke-miterlimit="10" stroke-width=".1"/><circle cx="36" cy="36" r="29" fill="none" stroke="#00a5ff" stroke-miterlimit="10" stroke-width=".1"/><path d="M58 60s0-2-1-6c-1.21-4.846-4-8-10-8H25c-6 0-8.79 3.154-10 8-1 4-1 6-1 6m12-34c0 3.725.54 7.809 2 10 1.861 2.793 5.018 4 8 4 3.096 0 6.137-1.207 8-4 1.46-2.191 2-6.275 2-10 0-2.793-1-12-10-12s-10 7.344-10 12z" stroke-linecap="round" stroke-miterlimit="10" stroke-width="6" stroke="#fff" fill="none" stroke-linejoin="round"/><path d="M58 61s0-3-1-7c-1.21-4.846-4-8-10-8H25c-6 0-8.79 3.154-10 8-1 4-1 7-1 7h44zM26 26c0 3.725.54 7.809 2 10 1.861 2.793 5.018 4 8 4 3.096 0 6.137-1.207 8-4 1.46-2.191 2-6.275 2-10 0-2.793-1-12-10-12s-10 7.344-10 12z" fill="#D0CFCE"/><g fill="none" stroke="#000" stroke-linejoin="round" stroke-width="2"><path stroke-linecap="round" d="M58 60s0-2-1-6c-1.21-4.846-4-8-10-8H25c-6 0-8.79 3.154-10 8-1 4-1 6-1 6"/><path d="M26 26c0 3.725.54 7.809 2 10 1.861 2.793 5.018 4 8 4 3.096 0 6.137-1.207 8-4 1.46-2.191 2-6.275 2-10 0-2.793-1-12-10-12s-10 7.344-10 12z"/></g></svg>
